icons/exchange-cny-fill.svg

<svg viewBox="0 0 24 24" fill="currentColor" xmlns="http://www.w3.org/2000/svg"><path d="M5.37833 4.51335C7.14264 2.95113 9.46301 2.00275 12.0049 2.00275C17.5277 2.00275 22.0049 6.4799 22.0049 12.0027C22.0049 14.1277 21.3421 16.0978 20.212 17.7177L17.5049 12.0027H20.0049C20.0049 7.58447 16.4232 4.00275 12.0049 4.00275C9.76058 4.00275 7.73213 4.92691 6.27932 6.41544L5.37833 4.51335ZM18.6314 19.4921C16.8671 21.0544 14.5468 22.0027 12.0049 22.0027C6.48204 22.0027 2.00488 17.5256 2.00488 12.0027C2.00488 9.8778 2.66767 7.90766 3.79778 6.28776L6.50488 12.0027H4.00488C4.00488 16.421 7.5866 20.0027 12.0049 20.0027C14.2492 20.0027 16.2776 19.0786 17.7304 17.59L18.6314 19.4921ZM13.0049 13.5383H16.0049V15.5383H13.0049V17.5383H11.0049V15.5383H8.00488V13.5383H11.0049V12.5383H8.00488V10.5383H10.5907L8.46935 8.41696L9.88356 7.00275L12.0049 9.12407L14.1262 7.00275L15.5404 8.41696L13.4191 10.5383H16.0049V12.5383H13.0049V13.5383Z"/></svg>

<svg xmlns="http://www.w3.org/2000/svg" viewBox="0 0 24 24">
    <g>
        <path fill="none" d="M0 0h24v24H0z"/>
        <path d="M5.373 4.51A9.962 9.962 0 0 1 12 2c5.523 0 10 4.477 10 10a9.954 9.954 0 0 1-1.793 5.715L17.5 12H20A8 8 0 0 0 6.274 6.413l-.9-1.902zm13.254 14.98A9.962 9.962 0 0 1 12 22C6.477 22 2 17.523 2 12c0-2.125.663-4.095 1.793-5.715L6.5 12H4a8 8 0 0 0 13.726 5.587l.9 1.902zM13 13.535h3v2h-3v2h-2v-2H8v-2h3v-1H8v-2h2.586L8.464 8.414 9.88 7 12 9.121 14.121 7l1.415 1.414-2.122 2.122H16v2h-3v1z"/>
    </g>
</svg>
